X: 35601
T: Sad Is My Fate
R: waltz
M: 3/4
K: Ddorian
|:A2|d2 cA GE|[M:4/4] D2 C4 DE|[M:3/4] F2- FG AB|c2 A2 A^c|
d2 cA GE|[M:4/4] D2 C4 DE|[M:3/4] F2- FG E (3F/E/D/|D4 AG|
A2 d2 de|f2 ed ce|d2 c2 AG|F4 FG|
A2 d2 de|f2 ed ^ce|d6|d4 de|
f2 fe d^c|d2 A2 AB|c2- cA GF|E2 C2 DE|
F2 FG AB|c2 A2 AG|F2 G2 ED|D4:|

